X: 540
T: Delisin Deli Gönlüm
C: Selahaddin Pınar
O: Turkey
F: http://compmusic.upf.edu/node/140
N: beyati--sarki--aksak--delisin_deli--selahattin_pinar
N: makam= beyati
N: form= sarki
N: usul= aksak = 9/8
M: 9/8
L: 1/16
K: C _2/4B   
Q: 1/4=120
%%MIDI tuningsystem comma53
z4 geed {e}.d4 g3/2f/eg fe | d4B2 cdcB BAA4BA  | 
w:  De *  li *  *  sin  SAZ  |  *  De li  *  gön *  *  *  lüm   | 
A4 geed .d4 d3/2c/Bc de | d4Bc defg edd4ed  | 
w:  *  de *  li *  sin   SAZ  |  *  de *  li  *  gön *  *  *  lüm   | 
d4 .d2e2 d2cB ^3/4f3/2e/fg a2 | g^2/4f edd2 edd4^3/4f3/2e/ fg^2/4fe  | 
w:  *  Bin bir  be *  *  re  |  li  *  *  *  gön *  *  lüm   SAZ  | 
d4 c2dB c2df edcB A2 | GB Ac(3Bcd (3cBAA4g2 {a}g^2/4fgf  | 
w:  *  Bin bir  *  be *  *  re  |  li  *  *  *  gön *  *  *  *  *  lüm   SAZ  | 
e4 zg^3/4fe e2{=f}ea gfed e2 | ^3/4f3/2e/ fga3/2g/ a=bag ^2/4fed4ed  | 
w:  *  Gül *  dü ğü *  *  *  nü   |  kim  *  *  *  gör *  *  *  dü   | 
d4 zg2a a4 g2^2/4f2 e2 | e2 ^3/4fgg3/2^2/4f/ =fe{f}e4a3/2g/ ^2/4fagf  | 
w:  *  Gül dü ğü nü   |  kim  *  *  gör *  *  *  *  dü   SAZ  | 
e4 {f}e2^3/4f2 a2g2 a3/2g/a_b ag | \
w:  *  *  Sev din  se *  ve  | 
f3/2e/ fge2 {f}edd4d3/2c/ Bfed  | 
w:  li  *  *  *  gön *  *  *  lüm   SAZ  | 
d4 B2c2 d3f edcB A2 | GB Ac(3Bcd (3cBAA4.A2 .A2.A2  | 
w:  *  Sev din  se *  ve  |  li  *  *  *  gön *  *  *  *  *  lüm   SAZ  | 
A4 geed .d4 g3/2f/eg fe | d4B2 cdcB BAA4BA  | 
w:  *  De *  li *  sin  SAZ  |  *  de li  *  gön *  *  *  lüm   | 
A4 GABc defe dcBA Gd | cB BAA4A4g6  | 
w:  *  Bin *  bir  *  be *  *  *  re  |  li  *  *  *  gön lüm  SAZ  | 
z20  | z4^3/4f2g4g2a2g2^2/4fed2 | e2^3/4f2g2f2{b}agg4cdefg2  | 
w:  |  Gö nül ler  *  kur  |  du  *  gön *  *  *  *  lüm   SAZ  | 
z4^3/4f2g2a2c'2{d'}b2b4a2 | a2^3/4g2^2/4f4e2{=f}e4a6  | \
w:  Gö nül *  ler  *  *  kur  |  du  gön *  *  *  lüm    | 
z4^3/4g2a4a4a2g2f2 | 
w:  Gü zel ler  yur  | 
a3^gf2a4gffea6  | z4a2=b2a2d'c'ba^3/4g2f2e2 | \
w:  du  *  gön *  lüm    |  Gü zel *  ler  *  *  *  yur  | 
f2^3/4g2a2f2e2e4ABcde2  | 
w:  du  *  gön *  *  lüm   SAZ  | 
z4g2a4a4a2{_b}a2g2 | g4a2a2{_b}g2f2e2f6  | \
w:  Se sin de  bir   |  a *  cı  *  *  var    | 
z4e2f2g2a2_b2c'2a2{b}g2 | 
w:  Se sin *  de  *  bir   | 
f2_1/4e4_2/4e2d2d2{f}_7/8edcBc4  | \
w:  a *  cı  *  var    | 
z4^3/4f2g4g4g2f2_1/4e2 | ^3/4f2g2a2_b3aagf_2/4ed2a4  | 
w:  Se ni  kim  vur  |  du  *  gön *  *  lüm    | 
z4a2a2g2g2f2e4d2 | d3cB2c2d2d4d6  | z18  | \
w:  Se ni  *  kim  *  vur  |  du  *  *  gön *  lüm   SAZ  |  | 
A4 geed .d4 g3/2f/eg fe | 
w:  *  De *  li *  sin  SAZ  | 
d4B2 cdcB BAA4dc  | A4 GABc defe dcBA d2 | 
w:  *  de li  *  gön *  *  *  lüm   |  *  Bin *  bir  *  be *  *  *  re  | 
cB BA{B}A4A8-A2  | |


